images/php-56.svg

<svg height="198" viewBox="0 0 163 198" width="163" xmlns="http://www.w3.org/2000/svg"><g fill="#3a75cd" fill-rule="evenodd"><path d="m53.7720357 123h-1.51375-12.2582857v30.454875h5.7707857v-9.838125h6.8026072l1.3345714-.02475c4.1581786 0 6.92-.66825 8.2916428-2.00475 1.3654643-1.342688 2.0451072-4.046625 2.0451072-8.124188 0-4.102312-.7105357-6.874312-2.1501429-8.309812-1.4334285-1.441688-4.2076071-2.15325-8.3225357-2.15325zm3.5526786 14.843813c-.7043572.606374-2.3663929.903374-4.9799286.903374h-6.574v-10.89h7.1547857c2.4590715 0 3.9913572.309375 4.5721429.921938.5931428.61875.8835357 2.208937.8835357 4.782937 0 2.258438-.3521786 3.681563-1.0565357 4.281751z"/><path d="m88.0309286 135.4245h-14.2663215v-12.4245h-5.7646071v30.454875h5.7646071v-13.167h14.2663215v13.167h5.7707857v-30.454875h-5.7707857z"/><path d="m121.088393 125.15325c-1.42725-1.4355-4.207607-2.15325-8.322536-2.15325h-1.51375-12.252107v30.454875h5.770786v-9.838125h6.802607l1.334571-.02475c4.164357 0 6.92-.66825 8.291643-2.00475 1.365464-1.342688 2.051286-4.046625 2.051286-8.124188-.006179-4.1085-.729072-6.8805-2.1625-8.309812zm-4.763679 12.690563c-.704357.606374-2.366393.903374-4.979928.903374h-6.574v-10.89h7.154785c2.459072 0 3.991358.309375 4.578322.921938.586964.61875.883536 2.208937.883536 4.782937-.006179 2.258438-.358358 3.681563-1.062715 4.281751z"/><path d="m.66575 18.4944375v179.5055625h143.194571c10.157572 0 18.46775-8.322187 18.46775-18.494438v-179.505562h-143.1883924c-10.15757146 0-18.4739286 8.3221875-18.4739286 18.4944375zm6 89.5055625h149.305179v61.262437h-149.305179zm137.016 84.502063h-137.016v-16.502063h149.305179v4.195125c.006178 6.787688-5.511286 12.306938-12.289179 12.306938zm12.295357-91.016563h-149.311357v-83.1785625c0-6.7876875 5.5174643-12.3069375 12.2953571-12.3069375h137.0159999z"/><text font-family="ArialRoundedMTBold, Arial Rounded MT Bold" font-size="44" letter-spacing="3.14285731"><tspan x="44.253488" y="71">5.6</tspan></text></g></svg>

<?xml version="1.0" encoding="UTF-8" standalone="no"?>
<svg width="163px" height="198px" viewBox="0 0 163 198" version="1.1" xmlns="http://www.w3.org/2000/svg" xmlns:xlink="http://www.w3.org/1999/xlink">
    <!-- Generator: Sketch 41.2 (35397) - http://www.bohemiancoding.com/sketch -->
    <title>5.6</title>
    <desc>Created with Sketch.</desc>
    <defs></defs>
    <g id="Page-1" stroke="none" stroke-width="1" fill="none" fill-rule="evenodd">
        <g id="Artboard" transform="translate(-500.000000, -150.000000)" fill="#3A75CD">
            <g id="5.6" transform="translate(500.000000, 150.000000)">
                <path d="M53.7720357,123 L52.2582857,123 L40,123 L40,153.454875 L45.7707857,153.454875 L45.7707857,143.61675 L52.5733929,143.61675 L53.9079643,143.592 C58.0661429,143.592 60.8279643,142.92375 62.1996071,141.58725 C63.5650714,140.244562 64.2447143,137.540625 64.2447143,133.463062 C64.2447143,129.36075 63.5341786,126.58875 62.0945714,125.15325 C60.6611429,123.711562 57.8869643,123 53.7720357,123 Z M57.3247143,137.843813 C56.6203571,138.450187 54.9583214,138.747187 52.3447857,138.747187 L45.7707857,138.747187 L45.7707857,127.857187 L52.9255714,127.857187 C55.3846429,127.857187 56.9169286,128.166562 57.4977143,128.779125 C58.0908571,129.397875 58.38125,130.988062 58.38125,133.562062 C58.38125,135.8205 58.0290714,137.243625 57.3247143,137.843813 Z" id="Shape"></path>
                <polygon id="Shape" points="88.0309286 135.4245 73.7646071 135.4245 73.7646071 123 68 123 68 153.454875 73.7646071 153.454875 73.7646071 140.287875 88.0309286 140.287875 88.0309286 153.454875 93.8017143 153.454875 93.8017143 123 88.0309286 123"></polygon>
                <path d="M121.088393,125.15325 C119.661143,123.71775 116.880786,123 112.765857,123 L111.252107,123 L99,123 L99,153.454875 L104.770786,153.454875 L104.770786,143.61675 L111.573393,143.61675 L112.907964,143.592 C117.072321,143.592 119.827964,142.92375 121.199607,141.58725 C122.565071,140.244562 123.250893,137.540625 123.250893,133.463062 C123.244714,129.354562 122.521821,126.582562 121.088393,125.15325 Z M116.324714,137.843813 C115.620357,138.450187 113.958321,138.747187 111.344786,138.747187 L104.770786,138.747187 L104.770786,127.857187 L111.925571,127.857187 C114.384643,127.857187 115.916929,128.166562 116.503893,128.779125 C117.090857,129.397875 117.387429,130.988062 117.387429,133.562062 C117.38125,135.8205 117.029071,137.243625 116.324714,137.843813 Z" id="Shape"></path>
                <path d="M0.66575,18.4944375 L0.66575,198 L143.860321,198 C154.017893,198 162.328071,189.677813 162.328071,179.505562 L162.328071,0 L19.1396786,0 C8.98210714,0 0.66575,8.3221875 0.66575,18.4944375 Z M6.66575,108 L155.970929,108 L155.970929,169.262437 L6.66575,169.262437 L6.66575,108 Z M143.68175,192.502063 L6.66575,192.502063 L6.66575,176 L155.970929,176 L155.970929,180.195125 C155.977107,186.982813 150.459643,192.502063 143.68175,192.502063 Z M155.977107,101.4855 L6.66575,101.4855 L6.66575,18.3069375 C6.66575,11.51925 12.1832143,6 18.9611071,6 L155.977107,6 L155.977107,101.4855 Z" id="Shape"></path>
                <text font-family="ArialRoundedMTBold, Arial Rounded MT Bold" font-size="44" font-weight="normal" letter-spacing="3.14285731">
                    <tspan x="44.2534875" y="71">5.6</tspan>
                </text>
            </g>
        </g>
    </g>
</svg>
